X:1
T:Title
%%score { 1 | 2 }
L:1/8
M:4/4
K:D
V:1 treble nm="Piano"
V:2 bass 
V:1
 F2 G2 [EB]2 F2 | G2 [B,F]2 [F,D]4 | G4 GBe z | f z c z d z e2 | a4 d4 | B8 | F2 E2 D4 :: %7
 F2 G2 [EB]2 F2 | [EB]2 G2 B2 A2 | eAdG EDA,C | E z A z EDAd :| dcBA GFED |] z8 | z8 | z8 | z8 | %16
 z8 | z8 | z8 | z8 | z8 | z8 | z8 | z8 | z8 | z8 | z8 | z8 | z8 | z8 | z8 | z8 |] %32
V:2
 A,,4 G,,4 | A,,4 z4 | B,,8 | E,8 | D,8 | G,E,F,D, E,F,G,A, | z8 :: B,,4 F,,4 | A,,4 G,,4 | %9
 C,4 B,,4 | B,,4 D,4 :| B,,8 |] z8 | z8 | z8 | z8 | z8 | z8 | z8 | z8 | z8 | z8 | z8 | z8 | z8 | %25
 z8 | z8 | z8 | z8 | z8 | z8 | z8 |] %32

